packages/icons/svg/Fill/settings.svg

<svg width="24" height="24" viewBox="0 0 24 24" fill="none" xmlns="http://www.w3.org/2000/svg">
<g id="Icon/Fill/settings">
<path id="Mask" fill-rule="evenodd" clip-rule="evenodd" d="M12.0001 10.5C11.1731 10.5 10.5001 11.173 10.5001 12C10.5001 12.827 11.1731 13.5 12.0001 13.5C12.8271 13.5 13.5001 12.827 13.5001 12C13.5001 11.173 12.8271 10.5 12.0001 10.5ZM12.0001 15.5C10.0701 15.5 8.50012 13.93 8.50012 12C8.50012 10.07 10.0701 8.5 12.0001 8.5C13.9301 8.5 15.5001 10.07 15.5001 12C15.5001 13.93 13.9301 15.5 12.0001 15.5ZM21.8921 10.319L21.1051 7.798C20.9171 7.193 20.5071 6.704 19.9521 6.42C19.4111 6.143 18.7961 6.096 18.2201 6.288L17.8801 6.401C17.3441 6.582 16.7461 6.482 16.2871 6.137L16.1801 6.056C15.7431 5.728 15.4841 5.193 15.4861 4.627L15.4881 4.348C15.4901 3.713 15.2481 3.118 14.8051 2.673C14.3761 2.242 13.8091 2.004 13.2071 2.003L10.6601 2H10.6561C9.40212 2 8.37812 3.042 8.37312 4.326L8.37212 4.567C8.37012 5.165 8.09512 5.729 7.63912 6.077L7.51012 6.175C6.99712 6.565 6.33212 6.676 5.73312 6.472C5.17512 6.281 4.57812 6.322 4.05012 6.588C3.51012 6.861 3.11112 7.335 2.92612 7.922L2.11012 10.517C1.72312 11.749 2.37312 13.041 3.59012 13.458L3.75412 13.514C4.27212 13.691 4.68912 14.143 4.87312 14.725L4.92812 14.893C5.14712 15.539 5.07112 16.22 4.69712 16.75C3.97712 17.773 4.19612 19.216 5.18612 19.966L7.25812 21.54C7.65612 21.842 8.12712 22 8.61412 22C8.72912 22 8.84512 21.992 8.96112 21.974C9.57312 21.878 10.1101 21.543 10.4721 21.03L10.7031 20.702C11.0351 20.23 11.5421 19.951 12.1311 19.935C12.7181 19.902 13.2781 20.208 13.6281 20.712L13.7461 20.884C14.1051 21.402 14.6411 21.742 15.2551 21.841C15.8641 21.938 16.4711 21.787 16.9661 21.413L19.0271 19.857C20.0211 19.108 20.2491 17.66 19.5351 16.628L19.2741 16.253C18.9461 15.779 18.8501 15.162 19.0161 14.601C19.1971 13.989 19.6491 13.509 20.2261 13.315L20.4271 13.248C21.6141 12.851 22.2711 11.537 21.8921 10.319Z" fill="#000000"/>
</g>
</svg>

<svg fill="none" height="24" viewBox="0 0 24 24" width="24" xmlns="http://www.w3.org/2000/svg"><path clip-rule="evenodd" d="m12 10.4999c-.827 0-1.5.673-1.5 1.5s.673 1.5 1.5 1.5 1.5-.673 1.5-1.5-.673-1.5-1.5-1.5zm0 5.0002c-1.93 0-3.50002-1.57-3.50002-3.5s1.57002-3.50003 3.50002-3.50003 3.5 1.57003 3.5 3.50003-1.57 3.5-3.5 3.5zm9.892-5.1811-.787-2.521c-.188-.605-.598-1.094-1.153-1.378-.541-.277-1.156-.324-1.732-.132l-.34.113c-.536.181-1.134.081-1.593-.264l-.107-.081c-.437-.328-.696-.863-.694-1.429l.002-.279c.002-.635-.24-1.23-.683-1.675-.429-.431-.996-.669-1.598-.67l-2.547-.003h-.004c-1.25403 0-2.27803 1.042-2.28303 2.326l-.001.241c-.002.598-.277 1.162-.733 1.51l-.129.098c-.513.39-1.178.501-1.777.297-.558-.191-1.155-.15-1.683.116-.54.273-.939.747-1.124 1.334l-.816 2.595c-.387 1.232.263 2.524 1.48 2.941l.164.056c.518.177.935.629 1.119 1.211l.055.168c.219.646.143 1.327-.231 1.857-.72 1.023-.501 2.466.489 3.216l2.072 1.574c.398.302.869.46 1.356.46.115 0 .231-.008.347-.026.612-.096 1.14903-.431 1.51103-.944l.231-.328c.332-.472.839-.751 1.428-.767.587-.033 1.147.273 1.497.777l.118.172c.359.518.895.858 1.509.957.609.097 1.216-.054 1.711-.428l2.061-1.556c.994-.749 1.222-2.197.508-3.229l-.261-.375c-.328-.474-.424-1.091-.258-1.652.181-.612.633-1.092 1.21-1.286l.201-.067c1.187-.397 1.844-1.711 1.465-2.929z" fill="#6b7280" fill-rule="evenodd"/></svg>
